dist/assets/img/svgIcons/sprite.mono.svg

<?xml version="1.0" encoding="UTF-8" standalone="yes"?>
<svg xmlns="http://www.w3.org/2000/svg" style="display: none;">
  <symbol viewBox="0 0 24 25" xmlns="http://www.w3.org/2000/svg" id="phone">
    <path d="M7.72935 1.65413C7.36842 0.782295 6.4169 0.318252 5.50757 0.566679L1.38275 1.69163C0.567163 1.91662 0 2.65721 0 3.50092C0 15.0973 9.40271 24.5 20.9991 24.5C21.8428 24.5 22.5834 23.9328 22.8084 23.1173L23.9333 18.9924C24.1817 18.0831 23.7177 17.1316 22.8459 16.7707L18.3461 14.8957C17.582 14.577 16.6961 14.7973 16.1758 15.4395L14.2822 17.7503C10.9823 16.1894 8.31057 13.5177 6.7497 10.2178L9.06054 8.32884C9.7027 7.80386 9.923 6.92265 9.60426 6.15862L7.72935 1.65882V1.65413Z"/>
  </symbol>
</svg>

<?xml version="1.0" encoding="UTF-8" standalone="yes"?>
<svg xmlns="http://www.w3.org/2000/svg" style="display: none;">
  <symbol xmlns="http://www.w3.org/2000/svg" viewBox="0 0 24 25" id="phone">
    <path d="M7.73 1.654A1.87 1.87 0 0 0 5.507.567L1.383 1.692A1.88 1.88 0 0 0 0 3.5c0 11.597 9.403 21 21 21a1.88 1.88 0 0 0 1.808-1.383l1.125-4.125a1.87 1.87 0 0 0-1.087-2.221l-4.5-1.875a1.87 1.87 0 0 0-2.17.543l-1.894 2.311a15.84 15.84 0 0 1-7.532-7.532l2.31-1.89a1.87 1.87 0 0 0 .544-2.17l-1.875-4.5z"/>
  </symbol>
</svg>
